lucky-project/src/assets/icons_svg/chica.svg

<?xml version="1.0" encoding="UTF-8" standalone="no"?>
<svg
   xmlns:dc="http://purl.org/dc/elements/1.1/"
   xmlns:cc="http://creativecommons.org/ns#"
   xmlns:rdf="http://www.w3.org/1999/02/22-rdf-syntax-ns#"
   xmlns:svg="http://www.w3.org/2000/svg"
   xmlns="http://www.w3.org/2000/svg"
   viewBox="0 0 32 32"
   height="32"
   width="32"
   xml:space="preserve"
   id="svg2"
   version="1.1"><metadata
     id="metadata8"><rdf:RDF><cc:Work
         rdf:about=""><dc:format>image/svg+xml</dc:format><dc:type
           rdf:resource="http://purl.org/dc/dcmitype/StillImage" /></cc:Work></rdf:RDF></metadata><defs
     id="defs6"><clipPath
       id="clipPath20"
       clipPathUnits="userSpaceOnUse"><path
         style="clip-rule:evenodd"
         id="path18"
         d="m 5.800109,14.95359 c -0.08714,0.08719 -0.208078,0.13739 -0.331359,0.13739 -0.123281,0 -0.244219,-0.05015 -0.331406,-0.13739 C 5.050156,14.86598 5,14.74552 5,14.62177 5,14.49844 5.050109,14.37802 5.137344,14.29036 5.224531,14.20312 5.345469,14.15302 5.46875,14.15302 c 0.123281,0 0.244219,0.0501 0.331359,0.13734 0.087188,0.08714 0.137391,0.20808 0.137391,0.33141 0,0.12375 -0.050156,0.24468 -0.137391,0.33182 z" /></clipPath><clipPath
       id="clipPath26"
       clipPathUnits="userSpaceOnUse"><path
         id="path24"
         d="M -204,-607 H 1059 V 656 H -204 Z" /></clipPath><clipPath
       id="clipPath36"
       clipPathUnits="userSpaceOnUse"><path
         style="clip-rule:evenodd"
         id="path34"
         d="m 16.80673,8.884313 c 0.88529,0.386812 1.50577,1.270457 1.50577,2.296637 v 6.1628 C 18.3125,21.01402 15.32652,24 11.65625,24 7.985984,24 5,21.01402 5,17.34375 v -0.70313 c 0,-0.25884 0.209906,-0.46874 0.46875,-0.46874 0.258844,0 0.46875,0.2099 0.46875,0.46874 v 0.70313 c 0,3.15333 2.565422,5.71875 5.71875,5.71875 3.15333,0 5.71875,-2.56542 5.71875,-5.71875 v -6.1628 c 0,-0.86447 -0.70331,-1.567825 -1.56783,-1.567825 h -1.92309 c 0.01425,0.102187 0.02217,0.206344 0.02217,0.312375 v 1.24078 c 0,0.0072 -7.5e-4,0.01416 -0.0011,0.02128 1.34461,0.77907 2.25108,2.23388 2.25108,3.89653 v 1.60693 c 0,1.08557 -0.88317,1.96875 -1.96875,1.96875 h -5.0625 c -1.085578,0 -1.96875,-0.88318 -1.96875,-1.96875 v -1.60693 c 0,-1.66265 0.906469,-3.11746 2.251078,-3.89653 C 9.407,11.18048 9.40625,11.17345 9.40625,11.16628 V 9.9255 c 0,-0.106031 0.00792,-0.210187 0.022172,-0.312375 H 7.505328 C 6.640812,9.613125 5.9375,10.31644 5.9375,11.18095 V 12.75 c 0,0.25884 -0.209906,0.46875 -0.46875,0.46875 C 5.209906,13.21875 5,13.00884 5,12.75 V 11.18095 C 5,10.15472 5.620484,9.271078 6.505766,8.884266 3.846922,7.641797 2,4.942125 2,1.818797 V 0.46875 C 2,0.2099062 2.209906,0 2.46875,0 h 18.375 c 0.25884,0 0.46875,0.2099062 0.46875,0.46875 v 1.350047 c 0,3.123328 -1.84692,5.823 -4.50577,7.065516 z M 8.09375,15.08409 v 1.60693 c 0,0.56864 0.462609,1.03125 1.03125,1.03125 h 5.0625 c 0.56864,0 1.03125,-0.46261 1.03125,-1.03125 v -1.60693 c 0,-1.96434 -1.59816,-3.5625 -3.5625,-3.5625 -1.964344,0 -3.5625,1.59816 -3.5625,3.5625 z m 4.875,-4.30457 V 9.9255 c 0,-0.723703 -0.5888,-1.3125 -1.3125,-1.3125 -0.7237,0 -1.3125,0.588797 -1.3125,1.3125 v 0.85402 c 0.41541,-0.12689 0.85608,-0.19543 1.3125,-0.19543 0.45642,0 0.89709,0.06853 1.3125,0.19543 z M 9.786453,8.675531 C 10.19056,8.073 10.8778,7.6755 11.65625,7.6755 c 0.77845,0 1.46569,0.397453 1.8698,1.000031 0.45333,-5.15e-4 0.89634,-0.045562 1.32525,-0.130406 L 11.65625,3.011109 8.461203,8.545078 c 0.428906,0.084891 0.871922,0.129938 1.32525,0.130453 z M 20.375,0.9375 h -1.88944 v 1.640625 c 0,0.258844 -0.2099,0.46875 -0.46875,0.46875 -0.25884,0 -0.46875,-0.209906 -0.46875,-0.46875 V 0.9375 H 5.764437 v 3.020719 c 0,0.258843 -0.209906,0.46875 -0.46875,0.46875 -0.258843,0 -0.46875,-0.209907 -0.46875,-0.46875 V 0.9375 H 2.9375 v 0.881297 c 0,2.986265 1.919156,5.532328 4.588687,6.470812 L 11.25031,1.839281 c 0.08372,-0.145031 0.2385,-0.234375 0.40594,-0.234375 0.16744,0 0.32222,0.089344 0.40594,0.234375 l 3.72412,6.450328 C 18.45584,7.351125 20.375,4.805062 20.375,1.818797 Z" /></clipPath><clipPath
       id="clipPath42"
       clipPathUnits="userSpaceOnUse"><path
         id="path40"
         d="M -204,-607 H 1059 V 656 H -204 Z" /></clipPath><clipPath
       id="clipPath52"
       clipPathUnits="userSpaceOnUse"><path
         style="clip-rule:evenodd"
         id="path50"
         d="m 10.29402,15.52828 c -0.08715,0.08719 -0.20808,0.13735 -0.331364,0.13735 -0.123281,0 -0.24375,-0.05016 -0.331406,-0.13735 -0.087187,-0.08719 -0.136875,-0.2077 -0.136875,-0.3314 0,-0.12329 0.049688,-0.24422 0.136875,-0.33141 0.087656,-0.08714 0.208125,-0.13734 0.331406,-0.13734 0.123754,0 0.244224,0.05015 0.331364,0.13734 0.08765,0.08719 0.13781,0.20812 0.13781,0.33141 0,0.12328 -0.05016,0.24421 -0.13781,0.3314 z" /></clipPath><clipPath
       id="clipPath58"
       clipPathUnits="userSpaceOnUse"><path
         id="path56"
         d="M -204,-607 H 1059 V 656 H -204 Z" /></clipPath><clipPath
       id="clipPath68"
       clipPathUnits="userSpaceOnUse"><path
         style="clip-rule:evenodd"
         id="path66"
         d="m 13.69297,15.52828 c -0.08719,0.08714 -0.20813,0.13735 -0.33141,0.13735 -0.12328,0 -0.24422,-0.05016 -0.3314,-0.13735 -0.08714,-0.08719 -0.13735,-0.20812 -0.13735,-0.3314 0,-0.12329 0.05016,-0.24422 0.13735,-0.33141 0.08718,-0.08714 0.20812,-0.13734 0.3314,-0.13734 0.12328,0 0.24422,0.05015 0.33141,0.13734 0.08714,0.08719 0.13734,0.20812 0.13734,0.33141 0,0.12328 -0.05015,0.24421 -0.13734,0.3314 z" /></clipPath><clipPath
       id="clipPath74"
       clipPathUnits="userSpaceOnUse"><path
         id="path72"
         d="M -204,-607 H 1059 V 656 H -204 Z" /></clipPath><clipPath
       id="clipPath84"
       clipPathUnits="userSpaceOnUse"><path
         style="clip-rule:evenodd"
         id="path82"
         d="m 12.34738,13.79302 c -0.1831,0.183 -0.47982,0.183 -0.66296,0 -0.04772,-0.04772 -0.12534,-0.04772 -0.17311,0 -0.18304,0.18309 -0.4799,0.18304 -0.6629,-5e-5 -0.18305,-0.18305 -0.183,-0.47986 4e-5,-0.66291 0.20663,-0.20662 0.47803,-0.30989 0.74944,-0.30989 0.27141,0 0.54281,0.10331 0.74944,0.30989 0.18309,0.1831 0.18309,0.47991 5e-5,0.66296 z" /></clipPath><clipPath
       id="clipPath90"
       clipPathUnits="userSpaceOnUse"><path
         id="path88"
         d="M -204,-607 H 1059 V 656 H -204 Z" /></clipPath><clipPath
       id="clipPath100"
       clipPathUnits="userSpaceOnUse"><path
         style="clip-rule:evenodd"
         id="path98"
         d="m 18.34808,4.758234 c -0.08719,0.087235 -0.20761,0.137391 -0.33141,0.137391 -0.12328,0 -0.24422,-0.050156 -0.33136,-0.137391 -0.08719,-0.08714 -0.13739,-0.207656 -0.13739,-0.331359 0,-0.123281 0.05016,-0.244219 0.13739,-0.331406 0.08766,-0.087188 0.20808,-0.137344 0.33136,-0.137344 0.12328,0 0.24422,0.050109 0.33141,0.137344 0.08719,0.087234 0.13734,0.208125 0.13734,0.331406 0,0.123281 -0.05011,0.244219 -0.13734,0.331359 z" /></clipPath><clipPath
       id="clipPath106"
       clipPathUnits="userSpaceOnUse"><path
         id="path104"
         d="M -204,-607 H 1059 V 656 H -204 Z" /></clipPath></defs><g
     transform="matrix(1.3333333,0,0,-1.3333333,0,32)"
     id="g10"><g
       id="g12" /><g
       id="g14"><g
         clip-path="url(#clipPath20)"
         id="g16"><g
           clip-path="url(#clipPath26)"
           id="g22"><path
             id="path28"
             style="fill:#fa9c93;fill-opacity:1;fill-rule:nonzero;stroke:none"
             d="M 0,20.09098 H 10.9375 V 9.153016 H 0 Z" /></g></g></g><g
       id="g30"><g
         clip-path="url(#clipPath36)"
         id="g32"><g
           clip-path="url(#clipPath42)"
           id="g38"><path
             id="path44"
             style="fill:#fa9c93;fill-opacity:1;fill-rule:nonzero;stroke:none"
             d="M -3,29 H 26.3125 V -5 H -3 Z" /></g></g></g><g
       id="g46"><g
         clip-path="url(#clipPath52)"
         id="g48"><g
           clip-path="url(#clipPath58)"
           id="g54"><path
             id="path60"
             style="fill:#fa9c93;fill-opacity:1;fill-rule:nonzero;stroke:none"
             d="M 4.494375,20.66562 H 15.43183 V 9.728125 H 4.494375 Z" /></g></g></g><g
       id="g62"><g
         clip-path="url(#clipPath68)"
         id="g64"><g
           clip-path="url(#clipPath74)"
           id="g70"><path
             id="path76"
             style="fill:#fa9c93;fill-opacity:1;fill-rule:nonzero;stroke:none"
             d="M 7.892812,20.66562 H 18.83031 V 9.728125 H 7.892812 Z" /></g></g></g><g
       id="g78"><g
         clip-path="url(#clipPath84)"
         id="g80"><g
           clip-path="url(#clipPath90)"
           id="g86"><path
             id="path92"
             style="fill:#fa9c93;fill-opacity:1;fill-rule:nonzero;stroke:none"
             d="M 5.711145,18.93031 H 17.48465 V 7.820172 H 5.711145 Z" /></g></g></g><g
       id="g94"><g
         clip-path="url(#clipPath100)"
         id="g96"><g
           clip-path="url(#clipPath106)"
           id="g102"><path
             id="path108"
             style="fill:#fa9c93;fill-opacity:1;fill-rule:nonzero;stroke:none"
             d="m 12.54792,9.895625 h 10.9375 v -10.9375 h -10.9375 z" /></g></g></g></g></svg>

<?xml version="1.0" encoding="UTF-8" standalone="no"?>
<!DOCTYPE svg PUBLIC "-//W3C//DTD SVG 1.1//EN" "http://www.w3.org/Graphics/SVG/1.1/DTD/svg11.dtd">
<svg width="100%" height="100%" viewBox="0 0 32 32" version="1.1" xmlns="http://www.w3.org/2000/svg" xmlns:xlink="http://www.w3.org/1999/xlink" xml:space="preserve" xmlns:serif="http://www.serif.com/" style="fill-rule:evenodd;clip-rule:evenodd;stroke-linejoin:round;stroke-miterlimit:2;">
    <g id="g10" transform="matrix(1.33333,0,0,-1.33333,0,32)">
        <g id="g14">
            <g id="g16">
                <clipPath id="_clip1">
                    <path d="M5.8,14.954C5.713,15.041 5.592,15.091 5.469,15.091C5.345,15.091 5.225,15.041 5.137,14.954C5.05,14.866 5,14.746 5,14.622C5,14.498 5.05,14.378 5.137,14.29C5.225,14.203 5.345,14.153 5.469,14.153C5.592,14.153 5.713,14.203 5.8,14.29C5.887,14.378 5.938,14.498 5.938,14.622C5.938,14.746 5.887,14.866 5.8,14.954Z"/>
                </clipPath>
                <g clip-path="url(#_clip1)">
                    <g id="g22">
                        <rect id="path28" x="0" y="9.153" width="10.938" height="10.938" style="fill:rgb(1,116,142);fill-rule:nonzero;"/>
                    </g>
                </g>
            </g>
        </g>
        <g id="g30">
            <g id="g32">
                <clipPath id="_clip2">
                    <path d="M16.807,8.884C17.692,9.271 18.313,10.155 18.313,11.181L18.313,17.344C18.313,21.014 15.327,24 11.656,24C7.986,24 5,21.014 5,17.344L5,16.641C5,16.382 5.21,16.172 5.469,16.172C5.728,16.172 5.938,16.382 5.938,16.641L5.938,17.344C5.938,20.497 8.503,23.063 11.656,23.063C14.81,23.063 17.375,20.497 17.375,17.344L17.375,11.181C17.375,10.316 16.672,9.613 15.807,9.613L13.884,9.613C13.898,9.715 13.906,9.819 13.906,9.926L13.906,11.166C13.906,11.173 13.905,11.18 13.905,11.188C15.25,11.967 16.156,13.421 16.156,15.084L16.156,16.691C16.156,17.777 15.273,18.66 14.187,18.66L9.125,18.66C8.039,18.66 7.156,17.777 7.156,16.691L7.156,15.084C7.156,13.421 8.063,11.967 9.407,11.188C9.407,11.18 9.406,11.173 9.406,11.166L9.406,9.926C9.406,9.819 9.414,9.715 9.428,9.613L7.505,9.613C6.641,9.613 5.938,10.316 5.938,11.181L5.938,12.75C5.938,13.009 5.728,13.219 5.469,13.219C5.21,13.219 5,13.009 5,12.75L5,11.181C5,10.155 5.62,9.271 6.506,8.884C3.847,7.642 2,4.942 2,1.819L2,0.469C2,0.21 2.21,0 2.469,0L20.844,0C21.103,0 21.313,0.21 21.313,0.469L21.313,1.819C21.313,4.942 19.466,7.642 16.807,8.884ZM8.094,15.084L8.094,16.691C8.094,17.26 8.556,17.722 9.125,17.722L14.188,17.722C14.756,17.722 15.219,17.26 15.219,16.691L15.219,15.084C15.219,13.12 13.621,11.522 11.656,11.522C9.692,11.522 8.094,13.12 8.094,15.084ZM12.969,10.78L12.969,9.926C12.969,9.202 12.38,8.613 11.656,8.613C10.933,8.613 10.344,9.202 10.344,9.926L10.344,10.78C10.759,10.653 11.2,10.584 11.656,10.584C12.113,10.584 12.553,10.653 12.969,10.78ZM9.786,8.676C10.191,8.073 10.878,7.676 11.656,7.676C12.435,7.676 13.122,8.073 13.526,8.676C13.979,8.675 14.422,8.63 14.851,8.545L11.656,3.011L8.461,8.545C8.89,8.63 9.333,8.675 9.786,8.676ZM20.375,0.938L18.486,0.938L18.486,2.578C18.486,2.837 18.276,3.047 18.017,3.047C17.758,3.047 17.548,2.837 17.548,2.578L17.548,0.938L5.764,0.938L5.764,3.958C5.764,4.217 5.555,4.427 5.296,4.427C5.037,4.427 4.827,4.217 4.827,3.958L4.827,0.938L2.938,0.938L2.938,1.819C2.938,4.805 4.857,7.351 7.526,8.29L11.25,1.839C11.334,1.694 11.489,1.605 11.656,1.605C11.824,1.605 11.978,1.694 12.062,1.839L15.786,8.29C18.456,7.351 20.375,4.805 20.375,1.819L20.375,0.938Z"/>
                </clipPath>
                <g clip-path="url(#_clip2)">
                    <g id="g38">
                        <rect id="path44" x="-3" y="-5" width="29.313" height="34" style="fill:rgb(1,116,142);fill-rule:nonzero;"/>
                    </g>
                </g>
            </g>
        </g>
        <g id="g46">
            <g id="g48">
                <clipPath id="_clip3">
                    <path d="M10.294,15.528C10.207,15.615 10.086,15.666 9.963,15.666C9.839,15.666 9.719,15.615 9.631,15.528C9.544,15.441 9.494,15.321 9.494,15.197C9.494,15.074 9.544,14.953 9.631,14.865C9.719,14.778 9.839,14.728 9.963,14.728C10.086,14.728 10.207,14.778 10.294,14.865C10.382,14.953 10.432,15.074 10.432,15.197C10.432,15.32 10.382,15.441 10.294,15.528Z"/>
                </clipPath>
                <g clip-path="url(#_clip3)">
                    <g id="g54">
                        <rect id="path60" x="4.494" y="9.728" width="10.937" height="10.937" style="fill:rgb(1,116,142);fill-rule:nonzero;"/>
                    </g>
                </g>
            </g>
        </g>
        <g id="g62">
            <g id="g64">
                <clipPath id="_clip4">
                    <path d="M13.693,15.528C13.606,15.615 13.485,15.666 13.362,15.666C13.238,15.666 13.117,15.615 13.03,15.528C12.943,15.441 12.893,15.32 12.893,15.197C12.893,15.074 12.943,14.953 13.03,14.865C13.117,14.778 13.238,14.728 13.362,14.728C13.485,14.728 13.606,14.778 13.693,14.865C13.78,14.953 13.83,15.074 13.83,15.197C13.83,15.32 13.78,15.441 13.693,15.528Z"/>
                </clipPath>
                <g clip-path="url(#_clip4)">
                    <g id="g70">
                        <rect id="path76" x="7.893" y="9.728" width="10.937" height="10.937" style="fill:rgb(1,116,142);fill-rule:nonzero;"/>
                    </g>
                </g>
            </g>
        </g>
        <g id="g78">
            <g id="g80">
                <clipPath id="_clip5">
                    <path d="M12.347,13.793C12.164,13.976 11.868,13.976 11.684,13.793C11.637,13.745 11.559,13.745 11.511,13.793C11.328,13.976 11.031,13.976 10.848,13.793C10.665,13.61 10.665,13.313 10.848,13.13C11.055,12.923 11.326,12.82 11.598,12.82C11.869,12.82 12.141,12.923 12.347,13.13C12.53,13.313 12.53,13.61 12.347,13.793Z"/>
                </clipPath>
                <g clip-path="url(#_clip5)">
                    <g id="g86">
                        <rect id="path92" x="5.711" y="7.82" width="11.774" height="11.11" style="fill:rgb(1,116,142);fill-rule:nonzero;"/>
                    </g>
                </g>
            </g>
        </g>
        <g id="g94">
            <g id="g96">
                <clipPath id="_clip6">
                    <path d="M18.348,4.758C18.261,4.845 18.14,4.896 18.017,4.896C17.893,4.896 17.772,4.845 17.685,4.758C17.598,4.671 17.548,4.551 17.548,4.427C17.548,4.304 17.598,4.183 17.685,4.095C17.773,4.008 17.893,3.958 18.017,3.958C18.14,3.958 18.261,4.008 18.348,4.095C18.435,4.183 18.485,4.304 18.485,4.427C18.485,4.55 18.435,4.671 18.348,4.758Z"/>
                </clipPath>
                <g clip-path="url(#_clip6)">
                    <g id="g102">
                        <rect id="path108" x="12.548" y="-1.042" width="10.938" height="10.938" style="fill:rgb(1,116,142);fill-rule:nonzero;"/>
                    </g>
                </g>
            </g>
        </g>
    </g>
</svg>
